la/laugh-wink-solid.svg

<svg xmlns="http://www.w3.org/2000/svg" viewBox="0 0 32 32" height="1em" width="1em">
  <path d="M16 3C8.832 3 3 8.832 3 16s5.832 13 13 13 13-5.832 13-13S23.168 3 16 3zm0 2c6.065 0 11 4.935 11 11s-4.935 11-11 11S5 22.065 5 16 9.935 5 16 5zm-4.5 7a1.5 1.5 0 0 0 0 3 1.5 1.5 0 0 0 0-3zm6.5 1v2h5v-2h-5zm-9 6s1.61 5 7 5 7-5 7-5H9z"/>
</svg>

<svg xmlns="http://www.w3.org/2000/svg" viewBox="0 0 32 32" height="1em" width="1em">
  <path d="M 16 3 C 8.832 3 3 8.832 3 16 C 3 23.168 8.832 29 16 29 C 23.168 29 29 23.168 29 16 C 29 8.832 23.168 3 16 3 z M 16 5 C 22.065 5 27 9.935 27 16 C 27 22.065 22.065 27 16 27 C 9.935 27 5 22.065 5 16 C 5 9.935 9.935 5 16 5 z M 11.5 12 A 1.5 1.5 0 0 0 11.5 15 A 1.5 1.5 0 0 0 11.5 12 z M 18 13 L 18 15 L 23 15 L 23 13 L 18 13 z M 9 19 C 9 19 10.61 24 16 24 C 21.39 24 23 19 23 19 L 9 19 z"/>
</svg>
